findly-builder/apps/searchassist/src/assets/icons/schedule_timer.svg

<svg width="12" height="14" viewBox="0 0 12 14" fill="none" xmlns="http://www.w3.org/2000/svg">
<path d="M4.8782 0.000121693C4.68341 -0.00408473 4.50133 0.101082 4.40393 0.265144C4.3023 0.433411 4.3023 0.643746 4.40393 0.812013C4.50133 0.976075 4.68341 1.08124 4.8782 1.07704H5.42022V2.17919C2.38829 2.45683 0 4.99347 0 8.07697C0 11.3414 2.67624 14 5.96225 14C9.24826 14 11.9245 11.3414 11.9245 8.07697C11.9245 4.99347 9.53621 2.45683 6.50427 2.17919V1.07704H7.04629C7.24108 1.08124 7.42317 0.976075 7.52056 0.812013C7.62219 0.643746 7.62219 0.433411 7.52056 0.265144C7.42317 0.101082 7.24108 -0.00408473 7.04629 0.000121693H4.8782ZM10.2942 2.14554C10.0698 2.14974 9.87074 2.28015 9.79028 2.48628C9.70559 2.6882 9.7564 2.91957 9.91308 3.07101L11.0649 4.21523C11.2046 4.35826 11.4036 4.41294 11.5942 4.36667C11.7848 4.31619 11.933 4.16896 11.9838 3.97966C12.0304 3.79035 11.9753 3.59264 11.8356 3.45802L10.6838 2.3138C10.5779 2.20864 10.4382 2.14554 10.2942 2.14554ZM5.96225 3.23086C8.66389 3.23086 10.8404 5.3931 10.8404 8.07697C10.8404 10.7608 8.66389 12.9231 5.96225 12.9231C3.2606 12.9231 1.08404 10.7608 1.08404 8.07697C1.08404 5.3931 3.2606 3.23086 5.96225 3.23086ZM3.78569 5.37628C3.56549 5.38048 3.36647 5.51089 3.28601 5.71702C3.20132 5.91894 3.25213 6.15031 3.41305 6.30175L5.58114 8.45558C5.71664 8.59861 5.91567 8.65329 6.10622 8.60702C6.29678 8.55654 6.44499 8.4093 6.4958 8.22C6.54238 8.0307 6.48733 7.83299 6.34336 7.69837L4.17527 5.54455C4.07364 5.43938 3.9339 5.37628 3.78569 5.37628Z" fill="#85B7FE"/>
</svg>

<svg width="12" height="14" fill="none" xmlns="http://www.w3.org/2000/svg"><path d="M4.878 0a.543.543 0 0 0-.474.265.529.529 0 0 0 0 .547c.097.164.28.27.474.265h.542v1.102C2.388 2.457 0 4.993 0 8.077 0 11.341 2.676 14 5.962 14c3.286 0 5.963-2.659 5.963-5.923 0-3.084-2.389-5.62-5.42-5.898V1.077h.541a.543.543 0 0 0 .475-.265.529.529 0 0 0 0-.547A.543.543 0 0 0 7.046 0H4.878Zm5.416 2.146a.544.544 0 0 0-.504.34.529.529 0 0 0 .123.585l1.152 1.144c.14.143.339.198.53.152a.547.547 0 0 0 .389-.387.541.541 0 0 0-.148-.522l-1.152-1.144a.559.559 0 0 0-.39-.168ZM5.962 3.23c2.702 0 4.878 2.162 4.878 4.846s-2.176 4.846-4.878 4.846c-2.701 0-4.878-2.162-4.878-4.846S3.261 3.23 5.962 3.23ZM3.786 5.376a.543.543 0 0 0-.5.341.523.523 0 0 0 .127.585l2.168 2.154a.542.542 0 0 0 .915-.236.534.534 0 0 0-.153-.522L4.175 5.545a.543.543 0 0 0-.39-.169Z" fill="#85B7FE"/></svg>
